X:1
T:Sanctus
T:Sanctus
T:André Vierendeels (21/04/12)
C:André Vierendeels
C:(21/04/12)
%%score [ 1 2 3 4 ]
L:1/8
Q:1/4=120
M:2/2
K:C
V:1 treble nm="Soprano" snm="S"
V:2 treble nm="Alto" snm="A"
V:3 treble-8 nm="Tenor" snm="T"
V:4 bass nm="Bass" snm="B"
V:1
 c4 A4 | E4 F4 | G8 | E8 | B4 A4 | B4 ^G4 | A8 | B4 E4 | A6 B2 | A2 G2 ^F2 G2 | A4 B4 | %11
w: San- ctus,|San- ctus,|San-|ctus,|San- ctus,|San- *||* ctus,|Do- mi-|nus _ De- *|us sa-|
 A2 ^G2 B2 d2 | ^c4 z4 | e8 | e4 B4 | d8 | B8 | d4 B4- | B2 A2 ^F4 | E8 | ABcd edcB | A3 B cBAG | %22
w: ba- * * *|oth.|Ple-|ni sunt|coe-|li|et ter-||ra|glo- * * * * * * *||
 A3 B c3 d | edcB A2 ^G2 | A2 E2 G2 B2 | A6 ^G2 | A8 | G4 G4 | ^F4 G3 A | B2 cd e2 dc | B8 | A8 |] %32
w: ||* * ri- a|tu- *|a.|Ho- san-|a in ex-|cel- * * * * *||sis.|
V:2
 z8 | c4 A4 | E6 D2 | E4 A4 | G4 E2 D2 | B,4 E4- | E4 F4 | E2 D2 ^C4 | z4 D2 D2 | D4 D4- | D4 ^F4 | %11
w: |San- ctus,|San- *|ctus,- San-||||* * ctus,|Do- mi-|nus De-|* us|
 E6 ^G2 | A4 z4 | G4 E4 | G8 | A8 | D8 | ^F4 E4- | E4 D2 C2 | B,8 | z4 ABcd | c3 B AGFE | %22
w: sa- ba-|oth.|Ple- ni|sunt|coe-|li|et- ter-||ra|glo- * * *||
 F3 G E3 F | EFED E2 D2- | D2 E2 D2 G2 | E2 F2 E4 | E8 | D4 E4 | D4 D4 | G4 G2 A2- | %30
w: ||* * ri- *|tu- * *|a.|Ho- san-|na in|ex- cel- *|
 A2 ^G^F G A2 G | E8 |] %32
w: |sis.|
V:3
 z8 | A6 B2 | c2 A2 B4 | c6 d2 | e4 c4 | e6 d2 | c6 A2 | ^G4 A4 | z4 ^F2 G2 | A2 B2 c2 B2 | A4 d4 | %11
w: |San- *|* * ctus,|San- *|* ctus|San- *||* ctus,|Do- mi-|nus _ De- *|* us|
 B4 d2 e2 | e8 | B8 | c4 d4 | A8 | G8 | z4 G4- | G4 B2 A2 | ^G8 | z8 | ABcd edcB | A3 G c3 B | %23
w: sa- ba- *|oth.|Ple-|ni sunt|coe-|li-|et|_ ter- *|ra||glo- * * * * * * *||
 ABcd B4 | ^F2 G2 B4 | c2 d2 B3 d | ^c8 | B4 c4 | A4 B3 c | e4 c2 df | e2 B2 e2 d2 | ^c8 |] %32
w: ||ri- a tu- *|a.|Ho- san-|na in ex-|cel- * * *||sis.|
V:4
 z4 A,,4- | A,,4 D,4 | C,4 E,4 | A,6 G,F, | E,4 F,4 | ^G,4 E,4 | A,4 F,2 D,2 | E,4 A,,4 | D,6 G,2 | %9
w: San-||* ctus,|San- * *|* ctus,|San- *||* ctus,|Do- mi-|
 ^F,2 G,2 A,2 G,2 | ^F,4 B,,4 | E,4 E,4 | A,4 z4 | E,8 | C,4 G,4 | ^F,8 | G,8 | B,4 E,4 | %18
w: nus _ De- *|* us|sa- ba-|oth.|Ple-|ni sunt|coe-|li|et ter-|
 C,4 B,,4 | E,8 | z8 | A,3 G, A,3 B, | A,3 E, A,3 D, | A,,4 E,4 | D,2 C,2 G,2 E,2 | A,2 D,2 E,4 | %26
w: |ra||glo- * * *||||ri- a tu-|
 A,8 | G,4 C,4 | D,4 G,3 ^F, | E,4 C,2 F,D, | E,8 | A,8 |] %32
w: a.|Ho- san-|na in ex-|cel- * * *||sis.|

